americans/img/next.svg

<svg width="24" height="22" viewBox="0 0 24 22" fill="none" xmlns="http://www.w3.org/2000/svg">
<path fill-rule="evenodd" clip-rule="evenodd" d="M13.8125 21.1272L23.6786 11.2611V9.86607L13.8125 0L12.4174 1.39506L20.5984 9.57798H0V11.5512H20.6004L12.4155 19.7321L13.8105 21.1272H13.8125Z" fill="#D13034"/>
</svg>

<svg width="24" height="22" fill="none" xmlns="http://www.w3.org/2000/svg"><path fill-rule="evenodd" clip-rule="evenodd" d="m13.813 21.127 9.866-9.866V9.866L13.813 0l-1.396 1.395 8.181 8.183H0v1.973h20.6l-8.185 8.181 1.396 1.395h.002Z" fill="#D13034"/></svg>
